dataeast/_inc/system.svg

<svg xmlns="http://www.w3.org/2000/svg"><g fill="#fff"><path d="m522.213 114.594h77.787v19.11h-26.079v58.173h-25.629v-58.173h-26.079z"/><path d="m439.806 166.311 24.429-1.413c.525 3.672 1.611 6.474 3.24 8.394 2.649 3.12 6.432 4.674 11.361 4.674 3.672 0 6.498-.798 8.487-2.4 1.992-1.593 2.988-3.447 2.988-5.553 0-2.004-.951-3.795-2.853-5.379-1.908-1.578-6.294-3.075-13.164-4.479-11.25-2.34-19.278-5.472-24.069-9.363-4.833-3.894-7.251-8.859-7.251-14.892 0-3.96 1.233-7.701 3.711-11.232 2.472-3.525 6.195-6.3 11.163-8.322 4.962-2.007 11.763-3.015 20.412-3.015 10.608 0 18.705 1.836 24.276 5.496 5.562 3.672 8.883 9.495 9.939 17.493l-24.12 1.32c-.654-3.48-2.01-6.018-4.083-7.608-2.067-1.584-4.92-2.373-8.568-2.373-3.003 0-5.262.588-6.777 1.773-1.521 1.173-2.283 2.604-2.283 4.29 0 1.23.63 2.334 1.902 3.324 1.224 1.014 4.107 1.962 8.634 2.844 11.217 2.244 19.248 4.512 24.096 6.81 4.854 2.301 8.388 5.157 10.59 8.565 2.217 3.408 3.318 7.218 3.318 11.433 0 4.956-1.473 9.513-4.416 13.692-2.952 4.182-7.065 7.35-12.36 9.513-5.289 2.157-11.958 3.237-20.004 3.237-14.139 0-23.916-2.526-29.361-7.566-5.439-5.061-8.52-11.472-9.237-19.263z"/><path d="m405.312 179.091h-28.995l-4.182 12.786h-26.148l31.062-77.283h28.107l31.125 77.283h-26.811zm-5.424-16.719-9.051-27.762-9.069 27.762z"/><path d="m270.672 114.594h68.733v16.443h-43.11v12.363h39.948v15.738h-39.948v15.177h44.319v17.562h-69.942z"/><path d="m564.624 71.055h-29.004l-4.188 12.789h-26.139l31.065-77.283h28.101l31.131 77.283h-26.814zm-5.436-16.722-9.048-27.762-9.066 27.762z"/><path d="m432.102 6.561h77.787v19.107h-26.076v58.176h-25.629v-58.176h-26.082z"/><path d="m406.785 71.055h-29.001l-4.182 12.789h-26.145l31.065-77.283h28.107l31.125 77.283h-26.814zm-5.427-16.722-9.054-27.762-9.066 27.762z"/><path d="m271.119 6.561h37.98c7.485 0 13.539.942 18.144 2.844 4.611 1.899 8.424 4.629 11.424 8.172 3.012 3.555 5.196 7.68 6.546 12.393 1.356 4.707 2.037 9.702 2.037 14.967 0 8.253-1.008 14.667-3.021 19.215-2.016 4.551-4.809 8.376-8.382 11.445s-7.416 5.118-11.514 6.141c-5.607 1.401-10.683 2.106-15.234 2.106h-37.98zm25.629 17.562v42.156h6.225c5.304 0 9.078-.558 11.322-1.659s3.999-3.03 5.268-5.79c1.272-2.751 1.905-7.218 1.905-13.395 0-8.172-1.416-13.767-4.257-16.779-2.841-3.021-7.554-4.533-14.13-4.533z"/><path d="m16.086 0c-.288 0-.573.036-.858.036h-15.228v27.369l11.808-.024c39.744 0 71.958 32.217 71.958 71.964 0 39.633-32.052 71.781-71.655 71.946l-12.111.015v27.381h16.506v-.021c54.666-.225 98.916-44.601 98.916-99.321 0-54.864-44.475-99.345-99.336-99.345z"/><path d="m71.886 99.345c0-34.152-27.687-61.842-61.833-61.842-.186 0-10.014.027-10.014.027v123.648l10.275-.012c34.026-.144 61.572-27.765 61.572-61.821z"/><path d="m157.287 103.611c2.199 32.064 28.77 57.42 61.356 57.555l10.275.012v-57.567z"/><path d="m228.918 95.013v-57.483s-9.828-.021-10.014-.021c-32.685 0-59.385 25.386-61.614 57.504z"/><path d="m212.871 0c.291 0 .573.036.864.036h15.222v27.369l-11.808-.024c-39.741 0-71.964 32.217-71.964 71.964 0 39.633 32.058 71.781 71.661 71.946l12.111.015v27.381h-16.503v-.021c-54.669-.225-98.922-44.601-98.922-99.321 0-54.864 44.478-99.345 99.339-99.345z"/></g></svg>

<?xml version="1.0" encoding="utf-8"?>
<svg version="1.1" xmlns="http://www.w3.org/2000/svg">
  <g>
    <path d="M 522.213 114.594 L 600 114.594 L 600 133.704 L 573.921 133.704 L 573.921 191.877 L 548.292 191.877 L 548.292 133.704 L 522.213 133.704 L 522.213 114.594 Z" style="fill: rgb(255, 255, 255);"/>
    <path d="M 439.806 166.311 L 464.235 164.898 C 464.76 168.57 465.846 171.372 467.475 173.292 C 470.124 176.412 473.907 177.966 478.836 177.966 C 482.508 177.966 485.334 177.168 487.323 175.566 C 489.315 173.973 490.311 172.119 490.311 170.013 C 490.311 168.009 489.36 166.218 487.458 164.634 C 485.55 163.056 481.164 161.559 474.294 160.155 C 463.044 157.815 455.016 154.683 450.225 150.792 C 445.392 146.898 442.974 141.933 442.974 135.9 C 442.974 131.94 444.207 128.199 446.685 124.668 C 449.157 121.143 452.88 118.368 457.848 116.346 C 462.81 114.339 469.611 113.331 478.26 113.331 C 488.868 113.331 496.965 115.167 502.536 118.827 C 508.098 122.499 511.419 128.322 512.475 136.32 L 488.355 137.64 C 487.701 134.16 486.345 131.622 484.272 130.032 C 482.205 128.448 479.352 127.659 475.704 127.659 C 472.701 127.659 470.442 128.247 468.927 129.432 C 467.406 130.605 466.644 132.036 466.644 133.722 C 466.644 134.952 467.274 136.056 468.546 137.046 C 469.77 138.06 472.653 139.008 477.18 139.89 C 488.397 142.134 496.428 144.402 501.276 146.7 C 506.13 149.001 509.664 151.857 511.866 155.265 C 514.083 158.673 515.184 162.483 515.184 166.698 C 515.184 171.654 513.711 176.211 510.768 180.39 C 507.816 184.572 503.703 187.74 498.408 189.903 C 493.119 192.06 486.45 193.14 478.404 193.14 C 464.265 193.14 454.488 190.614 449.043 185.574 C 443.604 180.513 440.523 174.102 439.806 166.311 Z" style="fill: rgb(255, 255, 255);"/>
    <path d="M 405.312 179.091 L 376.317 179.091 L 372.135 191.877 L 345.987 191.877 L 377.049 114.594 L 405.156 114.594 L 436.281 191.877 L 409.47 191.877 L 405.312 179.091 M 399.888 162.372 L 390.837 134.61 L 381.768 162.372 L 399.888 162.372 Z" style="fill: rgb(255, 255, 255);"/>
    <path d="M 270.672 114.594 L 339.405 114.594 L 339.405 131.037 L 296.295 131.037 L 296.295 143.4 L 336.243 143.4 L 336.243 159.138 L 296.295 159.138 L 296.295 174.315 L 340.614 174.315 L 340.614 191.877 L 270.672 191.877 L 270.672 114.594 Z" style="fill: rgb(255, 255, 255);"/>
    <path d="M 564.624 71.055 L 535.62 71.055 L 531.432 83.844 L 505.293 83.844 L 536.358 6.561 L 564.459 6.561 L 595.59 83.844 L 568.776 83.844 L 564.624 71.055 M 559.188 54.333 L 550.14 26.571 L 541.074 54.333 L 559.188 54.333 Z" style="fill: rgb(255, 255, 255);"/>
    <path d="M 432.102 6.561 L 509.889 6.561 L 509.889 25.668 L 483.813 25.668 L 483.813 83.844 L 458.184 83.844 L 458.184 25.668 L 432.102 25.668 L 432.102 6.561 Z" style="fill: rgb(255, 255, 255);"/>
    <path d="M 406.785 71.055 L 377.784 71.055 L 373.602 83.844 L 347.457 83.844 L 378.522 6.561 L 406.629 6.561 L 437.754 83.844 L 410.94 83.844 L 406.785 71.055 M 401.358 54.333 L 392.304 26.571 L 383.238 54.333 L 401.358 54.333 Z" style="fill: rgb(255, 255, 255);"/>
    <path d="M 271.119 6.561 L 309.099 6.561 C 316.584 6.561 322.638 7.503 327.243 9.405 C 331.854 11.304 335.667 14.034 338.667 17.577 C 341.679 21.132 343.863 25.257 345.213 29.97 C 346.569 34.677 347.25 39.672 347.25 44.937 C 347.25 53.19 346.242 59.604 344.229 64.152 C 342.213 68.703 339.42 72.528 335.847 75.597 C 332.274 78.666 328.431 80.715 324.333 81.738 C 318.726 83.139 313.65 83.844 309.099 83.844 L 271.119 83.844 L 271.119 6.561 M 296.748 24.123 L 296.748 66.279 L 302.973 66.279 C 308.277 66.279 312.051 65.721 314.295 64.62 C 316.539 63.519 318.294 61.59 319.563 58.83 C 320.835 56.079 321.468 51.612 321.468 45.435 C 321.468 37.263 320.052 31.668 317.211 28.656 C 314.37 25.635 309.657 24.123 303.081 24.123 L 296.748 24.123 Z" style="fill: rgb(255, 255, 255);"/>
    <path d="M 16.086 0 C 15.798 0 15.513 0.036 15.228 0.036 L 0 0.036 L 0 27.405 L 11.808 27.381 C 51.552 27.381 83.766 59.598 83.766 99.345 C 83.766 138.978 51.714 171.126 12.111 171.291 L 0 171.306 L 0 198.687 L 16.506 198.687 L 16.506 198.666 C 71.172 198.441 115.422 154.065 115.422 99.345 C 115.422 44.481 70.947 0 16.086 0 Z" style="fill: rgb(255, 255, 255);"/>
    <path d="M 71.886 99.345 C 71.886 65.193 44.199 37.503 10.053 37.503 C 9.867 37.503 0.039 37.53 0.039 37.53 L 0.039 161.178 L 10.314 161.166 C 44.34 161.022 71.886 133.401 71.886 99.345 Z" style="fill: rgb(255, 255, 255);"/>
    <path d="M 157.287 103.611 C 159.486 135.675 186.057 161.031 218.643 161.166 L 228.918 161.178 L 228.918 103.611 L 157.287 103.611 Z" style="fill: rgb(255, 255, 255);"/>
    <path d="M 228.918 95.013 L 228.918 37.53 C 228.918 37.53 219.09 37.509 218.904 37.509 C 186.219 37.509 159.519 62.895 157.29 95.013 L 228.918 95.013 Z" style="fill: rgb(255, 255, 255);"/>
    <path d="M 212.871 0 C 213.162 0 213.444 0.036 213.735 0.036 L 228.957 0.036 L 228.957 27.405 L 217.149 27.381 C 177.408 27.381 145.185 59.598 145.185 99.345 C 145.185 138.978 177.243 171.126 216.846 171.291 L 228.957 171.306 L 228.957 198.687 L 212.454 198.687 L 212.454 198.666 C 157.785 198.441 113.532 154.065 113.532 99.345 C 113.532 44.481 158.01 0 212.871 0 Z" style="fill: rgb(255, 255, 255);"/>
  </g>
</svg>
